public/img/clients/mayhew.svg

<svg width="200" height="100" viewBox="0 0 200 100" fill="none" xmlns="http://www.w3.org/2000/svg">
<path fill-rule="evenodd" clip-rule="evenodd" d="M29.542 41.8501H33.418V43.4001C34.165 42.6201 34.801 42.0921 35.33 41.8161C35.892 41.5291 36.598 41.3861 37.45 41.3861C39.344 41.3861 40.843 42.2111 41.945 43.8661C43.162 42.2111 44.809 41.3861 46.888 41.3861C50.666 41.3861 52.555 43.6761 52.555 48.2581V58.6281H48.663V49.3081C48.663 47.7011 48.467 46.5641 48.077 45.8981C47.675 45.2201 47.015 44.8821 46.097 44.8821C45.027 44.8821 44.25 45.2841 43.762 46.0871C43.275 46.8921 43.03 48.1831 43.03 49.9631V58.6281H39.137V49.3601C39.137 46.3741 38.277 44.8821 36.554 44.8821C35.462 44.8821 34.667 45.2891 34.168 46.1051C33.668 46.9201 33.418 48.2051 33.418 49.9631V58.6281H29.542V41.8501ZM67.532 41.8501H71.424V58.6281H67.532V56.8701C65.936 58.3631 64.219 59.1101 62.382 59.1101C60.062 59.1101 58.145 58.2721 56.628 56.5951C55.124 54.8851 54.372 52.7481 54.372 50.1871C54.372 47.6721 55.124 45.5771 56.628 43.9001C58.133 42.2241 60.016 41.3851 62.278 41.3851C64.231 41.3851 65.982 42.1891 67.532 43.7971V41.8501ZM58.332 50.1871C58.332 51.7951 58.765 53.1041 59.627 54.1151C60.51 55.1371 61.625 55.6471 62.967 55.6471C64.403 55.6471 65.562 55.1541 66.447 54.1671C67.331 53.1441 67.774 51.8471 67.774 50.2731C67.774 48.7001 67.331 47.4031 66.448 46.3811C65.562 45.3811 64.414 44.8831 63.002 44.8831C61.67 44.8831 60.556 45.3881 59.66 46.3991C58.776 47.4211 58.333 48.6841 58.333 50.1891L58.332 50.1871ZM91.662 29.5341H95.536V43.2461C96.916 42.0061 98.436 41.3861 100.101 41.3861C101.998 41.3861 103.513 42.0001 104.651 43.2281C105.614 44.2961 106.097 46.0011 106.097 48.3441V58.6281H102.22V48.7061C102.22 47.3621 101.982 46.3891 101.506 45.7861C101.029 45.1841 100.262 44.8821 99.206 44.8821C97.851 44.8821 96.898 45.3021 96.346 46.1391C95.806 46.9891 95.536 48.4461 95.536 50.5131V58.6271H91.662V29.5341ZM88.522 70.7901H84.647V57.0801C83.267 58.3201 81.747 58.9401 80.082 58.9401C78.187 58.9401 76.672 58.3261 75.535 57.0971C74.57 56.0291 74.087 54.3241 74.087 51.9811V41.7001H77.963V51.6221C77.963 52.9651 78.203 53.9391 78.678 54.5421C79.154 55.1441 79.92 55.4461 80.978 55.4461C82.332 55.4461 83.286 55.0261 83.838 54.1881C84.376 53.3381 84.648 51.8801 84.648 49.8131V41.7001H88.522V70.7901ZM124.08 53.5971C123.223 56.0191 122.255 57.0791 120.82 57.9651C120.175 58.3611 119.482 58.6501 118.735 58.8351C117.987 59.0181 117.179 59.1091 116.305 59.1091C113.803 59.1091 111.792 58.3051 110.278 56.6991C108.761 55.0791 108.003 52.9311 108.003 50.2551C108.003 47.6031 108.738 45.4551 110.208 43.8131C111.69 42.1931 113.653 41.3831 116.1 41.3831C118.568 41.3831 120.52 42.1711 121.956 43.7431C123.38 45.3061 124.092 47.4711 124.092 50.2381L124.075 51.1501H112.05C112.155 52.5281 112.602 53.6241 113.395 54.4401C114.188 55.2441 115.203 55.6451 116.445 55.6451C117.409 55.6451 118.205 55.4151 118.838 54.9571C119.234 54.6621 119.665 54.2091 120.132 53.5971L124.082 53.5941L124.08 53.5971ZM120.095 47.9821C119.555 45.9151 118.253 44.8821 116.185 44.8821C115.715 44.8821 115.273 44.9541 114.859 45.0971C114.445 45.2411 114.069 45.4471 113.729 45.7171C113.392 45.9871 113.101 46.3121 112.859 46.6901C112.619 47.0701 112.434 47.5001 112.309 47.9821H120.094H120.095ZM136.995 56.4161C135.778 58.0701 134.131 58.8961 132.052 58.8961C128.274 58.8961 126.385 56.6061 126.385 52.0241V41.6541H130.278V50.9741C130.278 52.5811 130.473 53.7171 130.862 54.3841C131.265 55.0611 131.925 55.3601 132.842 55.3991C134.212 55.4571 134.92 54.8831 135.324 54.0341C135.864 52.8941 135.984 52.0971 135.984 50.3171V41.6531H139.451V50.3171C139.451 52.0971 139.451 53.4291 139.938 54.2331C140.426 55.0361 141.018 55.3981 142.088 55.3981C143.005 55.3981 143.665 55.0581 144.068 54.3811C144.458 53.7151 144.652 52.5791 144.652 50.9711V41.6511H148.546V52.0211C148.546 56.6041 146.151 58.8951 142.374 58.8951C140.296 58.8951 138.214 58.0681 136.999 56.4151H136.997L136.995 56.4161Z" fill="black"/>
<path d="M155.279 37.558C157.642 37.558 159.558 35.6422 159.558 33.279C159.558 30.9158 157.642 29 155.279 29C152.916 29 151 30.9158 151 33.279C151 35.6422 152.916 37.558 155.279 37.558Z" fill="black"/>
<path d="M165.279 37.558C167.642 37.558 169.558 35.6422 169.558 33.279C169.558 30.9158 167.642 29 165.279 29C162.916 29 161 30.9158 161 33.279C161 35.6422 162.916 37.558 165.279 37.558Z" fill="black"/>
<path d="M155.279 47.558C157.642 47.558 159.558 45.6422 159.558 43.279C159.558 40.9158 157.642 39 155.279 39C152.916 39 151 40.9158 151 43.279C151 45.6422 152.916 47.558 155.279 47.558Z" fill="black"/>
<path d="M165.279 47.558C167.642 47.558 169.558 45.6422 169.558 43.279C169.558 40.9158 167.642 39 165.279 39C162.916 39 161 40.9158 161 43.279C161 45.6422 162.916 47.558 165.279 47.558Z" fill="black"/>
</svg>

<svg xmlns="http://www.w3.org/2000/svg" focusable="false" role="img" viewBox="0 0 200 100" fill="currentColor">
  <path fill-rule="evenodd" d="M29.542 41.85h3.876v1.55c.747-.78 1.383-1.308 1.912-1.584.562-.287 1.268-.43 2.12-.43 1.894 0 3.393.825 4.495 2.48 1.217-1.655 2.864-2.48 4.943-2.48 3.778 0 5.667 2.29 5.667 6.872v10.37h-3.892v-9.32c0-1.607-.196-2.744-.586-3.41-.402-.678-1.062-1.016-1.98-1.016-1.07 0-1.847.402-2.335 1.205-.487.805-.732 2.096-.732 3.876v8.665h-3.893V49.36c0-2.986-.86-4.478-2.583-4.478-1.092 0-1.887.407-2.386 1.223-.5.815-.75 2.1-.75 3.858v8.665h-3.876V41.85zm37.99 0h3.892v16.778h-3.892V56.87c-1.596 1.493-3.313 2.24-5.15 2.24-2.32 0-4.237-.838-5.754-2.515-1.504-1.71-2.256-3.847-2.256-6.408 0-2.515.752-4.61 2.256-6.287 1.505-1.676 3.388-2.515 5.65-2.515 1.953 0 3.704.804 5.254 2.412V41.85zm-9.2 8.337c0 1.608.433 2.917 1.295 3.928.883 1.022 1.998 1.532 3.34 1.532 1.436 0 2.595-.493 3.48-1.48.884-1.023 1.327-2.32 1.327-3.894 0-1.573-.443-2.87-1.326-3.892-.886-1-2.034-1.498-3.446-1.498-1.332 0-2.446.505-3.342 1.516-.884 1.022-1.327 2.285-1.327 3.79l-.001-.002zm33.33-20.653h3.874v13.712c1.38-1.24 2.9-1.86 4.565-1.86 1.897 0 3.412.614 4.55 1.842.963 1.068 1.446 2.773 1.446 5.116v10.284h-3.877v-9.922c0-1.344-.238-2.317-.714-2.92-.477-.602-1.244-.904-2.3-.904-1.355 0-2.308.42-2.86 1.257-.54.85-.81 2.307-.81 4.374v8.114h-3.874V29.534zm-3.14 41.256h-3.875V57.08c-1.38 1.24-2.9 1.86-4.565 1.86-1.895 0-3.41-.614-4.547-1.843-.965-1.068-1.448-2.773-1.448-5.116V41.7h3.876v9.922c0 1.343.24 2.317.715 2.92.476.602 1.242.904 2.3.904 1.354 0 2.308-.42 2.86-1.258.538-.85.81-2.308.81-4.375V41.7h3.874v29.09zm35.558-17.193c-.857 2.422-1.825 3.482-3.26 4.368a7.314 7.314 0 01-2.085.87c-.748.183-1.556.274-2.43.274-2.502 0-4.513-.804-6.027-2.41-1.517-1.62-2.275-3.768-2.275-6.444 0-2.652.735-4.8 2.205-6.442 1.482-1.62 3.445-2.43 5.892-2.43 2.468 0 4.42.788 5.856 2.36 1.424 1.563 2.136 3.728 2.136 6.495l-.017.912H112.05c.105 1.378.552 2.474 1.345 3.29.793.804 1.808 1.205 3.05 1.205.964 0 1.76-.23 2.393-.688.396-.295.827-.748 1.294-1.36l3.95-.003-.002.003zm-3.985-5.615c-.54-2.067-1.842-3.1-3.91-3.1-.47 0-.912.072-1.326.215a3.819 3.819 0 00-2 1.593c-.24.38-.425.81-.55 1.292H120.095zm16.9 8.434c-1.217 1.654-2.864 2.48-4.943 2.48-3.778 0-5.667-2.29-5.667-6.872v-10.37h3.893v9.32c0 1.607.195 2.743.584 3.41.403.677 1.063.976 1.98 1.015 1.37.058 2.078-.516 2.482-1.365.54-1.14.66-1.937.66-3.717v-8.664h3.467v8.664c0 1.78 0 3.112.487 3.916.488.803 1.08 1.165 2.15 1.165.917 0 1.577-.34 1.98-1.017.39-.666.584-1.802.584-3.41v-9.32h3.894v10.37c0 4.583-2.395 6.874-6.172 6.874-2.078 0-4.16-.827-5.375-2.48h-.002l-.002.001z" clip-rule="evenodd"/>
  <path d="M155.279 37.558a4.28 4.28 0 100-8.558 4.28 4.28 0 000 8.558zM165.279 37.558a4.28 4.28 0 100-8.558 4.28 4.28 0 000 8.558zM155.279 47.558a4.28 4.28 0 100-8.558 4.28 4.28 0 000 8.558zM165.279 47.558a4.28 4.28 0 100-8.558 4.28 4.28 0 000 8.558z"/>
</svg>
